public/img/pixel-perfect.svg

<svg width="72" height="72" viewBox="0 0 72 72" fill="none" xmlns="http://www.w3.org/2000/svg">
<circle opacity="0.15" cx="51" cy="20" r="20" fill="#00FF99"/>
<g clip-path="url(#clip0_2_1406)">
<path d="M1.78689 64.7524C2.22147 64.7524 2.57377 64.4001 2.57377 63.9655C2.57377 63.531 2.22147 63.1786 1.78689 63.1786C1.3523 63.1786 1 63.531 1 63.9655C1 64.4001 1.3523 64.7524 1.78689 64.7524Z" fill="#00FF99"/>
<path d="M5.32787 63.1787H4.14754C3.93885 63.1787 3.7387 63.2616 3.59113 63.4092C3.44356 63.5568 3.36066 63.7569 3.36066 63.9656C3.36066 64.1743 3.44356 64.3744 3.59113 64.522C3.7387 64.6696 3.93885 64.7525 4.14754 64.7525H5.32787C5.53657 64.7525 5.73671 64.6696 5.88428 64.522C6.03185 64.3744 6.11476 64.1743 6.11476 63.9656C6.11476 63.7569 6.03185 63.5568 5.88428 63.4092C5.73671 63.2616 5.53657 63.1787 5.32787 63.1787ZM63.9508 63.1787H62.7705C62.5618 63.1787 62.3617 63.2616 62.2141 63.4092C62.0665 63.5568 61.9836 63.7569 61.9836 63.9656C61.9836 64.1743 62.0665 64.3744 62.2141 64.522C62.3617 64.6696 62.5618 64.7525 62.7705 64.7525H63.9508C64.1595 64.7525 64.3597 64.6696 64.5072 64.522C64.6548 64.3744 64.7377 64.1743 64.7377 63.9656C64.7377 63.7569 64.6548 63.5568 64.5072 63.4092C64.3597 63.2616 64.1595 63.1787 63.9508 63.1787Z" fill="#00FF99"/>
<path d="M66.3115 64.7524C66.7461 64.7524 67.0984 64.4001 67.0984 63.9655C67.0984 63.531 66.7461 63.1786 66.3115 63.1786C65.8769 63.1786 65.5246 63.531 65.5246 63.9655C65.5246 64.4001 65.8769 64.7524 66.3115 64.7524Z" fill="#00FF99"/>
<path d="M47.4868 66.3262H44.2182C44.0203 66.3421 43.8358 66.4319 43.7011 66.5777C43.5665 66.7235 43.4918 66.9147 43.4918 67.1131C43.4918 67.3116 43.5665 67.5027 43.7011 67.6486C43.8358 67.7944 44.0203 67.8842 44.2182 67.9H47.4868C47.6846 67.8842 47.8692 67.7944 48.0038 67.6486C48.1384 67.5027 48.2131 67.3116 48.2131 67.1131C48.2131 66.9147 48.1384 66.7235 48.0038 66.5777C47.8692 66.4319 47.6846 66.3421 47.4868 66.3262ZM23.8802 66.3262H20.6116C20.4138 66.3421 20.2292 66.4319 20.0946 66.5777C19.96 66.7235 19.8853 66.9147 19.8853 67.1131C19.8853 67.3116 19.96 67.5027 20.0946 67.6486C20.2292 67.7944 20.4138 67.8842 20.6116 67.9H23.8802C24.078 67.8842 24.2626 67.7944 24.3972 67.6486C24.5318 67.5027 24.6066 67.3116 24.6066 67.1131C24.6066 66.9147 24.5318 66.7235 24.3972 66.5777C24.2626 66.4319 24.078 66.3421 23.8802 66.3262ZM41.918 66.3262H26.1803C25.9716 66.3262 25.7715 66.4091 25.6239 66.5567C25.4764 66.7043 25.3935 66.9044 25.3935 67.1131C25.3935 67.3218 25.4764 67.522 25.6239 67.6695C25.7715 67.8171 25.9716 67.9 26.1803 67.9H32.4518V68.6869H29.3279C29.1192 68.6869 28.919 68.7698 28.7715 68.9174C28.6239 69.0649 28.541 69.2651 28.541 69.4738C28.541 69.6825 28.6239 69.8826 28.7715 70.0302C28.919 70.1778 29.1192 70.2607 29.3279 70.2607H39.1639C39.3726 70.2607 39.5728 70.1778 39.7204 70.0302C39.8679 69.8826 39.9508 69.6825 39.9508 69.4738C39.9508 69.2651 39.8679 69.0649 39.7204 68.9174C39.5728 68.7698 39.3726 68.6869 39.1639 68.6869H35.6466V67.9H41.918C42.1267 67.9 42.3269 67.8171 42.4745 67.6695C42.622 67.522 42.7049 67.3218 42.7049 67.1131C42.7049 66.9044 42.622 66.7043 42.4745 66.5567C42.3269 66.4091 42.1267 66.3262 41.918 66.3262Z" fill="#00FF99"/>
<path d="M60.2997 63.1787H36.3784L38.6682 58.8508L41.8157 53.3387C41.8959 53.1966 41.9277 53.0323 41.9062 52.8705V52.3236C41.9537 47.6328 43.6327 43.1048 46.6551 39.5171C48.127 37.7324 49.1767 35.6383 49.7258 33.3911C50.2748 31.1438 50.309 28.8016 49.8257 26.5393C49.3425 24.277 48.3544 22.1531 46.9351 20.3263C45.5159 18.4995 43.7022 17.017 41.6296 15.9895C39.5569 14.962 37.2789 14.4161 34.9657 14.3926C32.6525 14.3691 30.3639 14.8685 28.2708 15.8536C26.1777 16.8387 24.3342 18.284 22.8781 20.0816C21.422 21.8791 20.3908 23.9824 19.8616 26.2344C19.3144 26.3332 18.8196 26.6222 18.4647 27.0504C18.1098 27.4785 17.9176 28.0183 17.922 28.5744C17.9264 29.1305 18.1272 29.6671 18.4889 30.0896C18.8505 30.512 19.3498 30.7931 19.8986 30.8832C20.4474 30.9733 21.0103 30.8665 21.488 30.5819C21.9658 30.2972 22.3276 29.8529 22.5095 29.3274C22.6915 28.8019 22.6819 28.229 22.4825 27.7098C22.2831 27.1907 21.9066 26.7587 21.4197 26.4902C21.9061 24.4737 22.8413 22.593 24.1556 20.9883C25.4699 19.3835 27.1293 18.096 29.0104 17.2217C30.8914 16.3474 32.9455 15.9089 35.0196 15.9387C37.0936 15.9686 39.1342 16.4662 40.9893 17.3943C42.8443 18.3225 44.466 19.6572 45.7335 21.2992C47.001 22.9412 47.8816 24.8481 48.3097 26.8777C48.7379 28.9073 48.7024 31.0074 48.2061 33.0214C47.7098 35.0355 46.7654 36.9115 45.4433 38.5098C42.2246 42.3397 40.4214 47.1603 40.3364 52.1623H29.3279C29.2636 47.131 27.5466 42.2605 24.4413 38.3013C24.3125 38.1379 24.1242 38.032 23.9176 38.0069C23.711 37.9818 23.5029 38.0395 23.3386 38.1674C23.1744 38.2952 23.0675 38.4828 23.0411 38.6893C23.0148 38.8957 23.0712 39.1042 23.198 39.2692C26.1223 42.992 27.7251 47.5818 27.7541 52.3158V52.7485C27.7367 52.814 27.7274 52.8814 27.7266 52.9492C27.7273 53.1468 27.8033 53.3367 27.939 53.4803L30.9921 58.8272L33.2938 63.1787H7.79868C7.68669 63.164 7.57284 63.1733 7.46475 63.2062C7.35667 63.239 7.25683 63.2945 7.17191 63.3689C7.08699 63.4434 7.01895 63.5352 6.97234 63.6381C6.92572 63.741 6.90161 63.8526 6.90161 63.9656C6.90161 64.0785 6.92572 64.1902 6.97234 64.2931C7.01895 64.396 7.08699 64.4878 7.17191 64.5622C7.25683 64.6367 7.35667 64.6922 7.46475 64.725C7.57284 64.7578 7.68669 64.7672 7.79868 64.7525H60.2997C60.4117 64.7672 60.5255 64.7578 60.6336 64.725C60.7417 64.6922 60.8415 64.6367 60.9265 64.5622C61.0114 64.4878 61.0794 64.396 61.126 64.2931C61.1726 64.1902 61.1967 64.0785 61.1967 63.9656C61.1967 63.8526 61.1726 63.741 61.126 63.6381C61.0794 63.5352 61.0114 63.4434 60.9265 63.3689C60.8415 63.2945 60.7417 63.239 60.6336 63.2062C60.5255 63.1733 60.4117 63.164 60.2997 63.1787ZM20.2787 29.3426C20.1231 29.3426 19.9709 29.2965 19.8415 29.21C19.7121 29.1236 19.6113 29.0007 19.5517 28.8569C19.4921 28.7131 19.4766 28.5549 19.5069 28.4022C19.5373 28.2496 19.6122 28.1094 19.7223 27.9993C19.8323 27.8893 19.9725 27.8143 20.1252 27.784C20.2778 27.7536 20.436 27.7692 20.5798 27.8288C20.7236 27.8883 20.8465 27.9892 20.933 28.1186C21.0194 28.248 21.0656 28.4001 21.0656 28.5557C21.065 28.7643 20.9819 28.964 20.8344 29.1115C20.687 29.2589 20.4872 29.342 20.2787 29.3426ZM32.5777 58.4574L32.3731 58.0718L29.8984 53.7361H39.7738L37.2872 58.0915L37.0944 58.4574H32.5777ZM34.8361 62.7302L33.4079 60.0312H36.2643L34.8361 62.7302Z" fill="#00FF99"/>
<path d="M37.2439 31.4082C36.5829 29.9525 36.1659 28.9689 36.0046 27.6863C35.9928 27.5564 35.9416 26.5886 35.9377 26.3053C35.9534 26.1947 35.9454 26.082 35.9141 25.9748C35.8568 25.7848 35.7307 25.623 35.5604 25.5211C35.3901 25.4192 35.1879 25.3846 34.9934 25.424C34.9849 25.4284 34.9755 25.431 34.9659 25.4318C32.6603 25.7663 30.638 29.1774 30.4019 29.5945C28.4308 33.3046 31.2518 37.1918 32.0937 38.2187L32.8256 52.1623H34.4033L33.699 38.7853H35.9731L35.2688 52.1623H36.8465L37.5901 38.0417C37.5901 38.0299 37.5862 38.022 37.5862 38.0141C39.4433 35.5394 37.4839 31.841 37.2439 31.4082ZM36.217 37.2076L33.2662 37.1643C32.5462 36.2633 30.3115 33.1158 31.779 30.3538C32.3298 29.3977 33.3882 27.9853 34.3797 27.3322C34.3954 27.4974 34.4151 27.6745 34.4387 27.8672C34.6354 29.3938 35.1154 30.5308 35.8236 32.0889C35.8354 32.1125 35.8472 32.1361 35.859 32.1558C35.8787 32.1912 37.6964 35.4882 36.217 37.2076V37.2076Z" fill="#00FF99"/>
<path d="M53.1312 22.623C53.3646 22.623 53.5928 22.5537 53.7869 22.424C53.981 22.2943 54.1323 22.11 54.2216 21.8943C54.311 21.6786 54.3344 21.4413 54.2888 21.2124C54.2433 20.9834 54.1309 20.7731 53.9658 20.608C53.8007 20.4429 53.5904 20.3305 53.3614 20.285C53.1325 20.2394 52.8951 20.2628 52.6795 20.3522C52.4638 20.4415 52.2794 20.5928 52.1497 20.7869C52.0201 20.981 51.9508 21.2092 51.9508 21.4426C51.9512 21.7556 52.0757 22.0556 52.2969 22.2769C52.5182 22.4981 52.8182 22.6226 53.1312 22.623ZM53.1312 20.8525C53.2479 20.8525 53.362 20.8871 53.459 20.9519C53.5561 21.0168 53.6317 21.109 53.6764 21.2168C53.7211 21.3246 53.7328 21.4433 53.71 21.5578C53.6872 21.6723 53.631 21.7774 53.5485 21.8599C53.4659 21.9425 53.3608 21.9987 53.2463 22.0215C53.1318 22.0442 53.0132 22.0325 52.9053 21.9879C52.7975 21.9432 52.7053 21.8676 52.6405 21.7705C52.5756 21.6735 52.541 21.5594 52.541 21.4426C52.5411 21.2862 52.6034 21.1361 52.714 21.0255C52.8247 20.9149 52.9747 20.8526 53.1312 20.8525ZM64.7377 24.2902C64.5821 24.2902 64.43 24.3363 64.3005 24.4228C64.1711 24.5093 64.0703 24.6322 64.0107 24.776C63.9512 24.9197 63.9356 25.078 63.966 25.2306C63.9963 25.3832 64.0713 25.5234 64.1813 25.6335C64.2914 25.7435 64.4316 25.8185 64.5842 25.8488C64.7368 25.8792 64.8951 25.8636 65.0388 25.8041C65.1826 25.7445 65.3055 25.6437 65.392 25.5143C65.4785 25.3848 65.5246 25.2327 65.5246 25.0771C65.5244 24.8685 65.4414 24.6685 65.2939 24.5209C65.1463 24.3734 64.9463 24.2904 64.7377 24.2902ZM64.7377 25.4705C64.6599 25.4705 64.5838 25.4474 64.5191 25.4042C64.4544 25.361 64.404 25.2995 64.3742 25.2276C64.3444 25.1558 64.3367 25.0766 64.3518 25.0003C64.367 24.924 64.4045 24.8539 64.4595 24.7989C64.5145 24.7439 64.5846 24.7064 64.661 24.6912C64.7373 24.676 64.8164 24.6838 64.8883 24.7136C64.9602 24.7434 65.0216 24.7938 65.0649 24.8585C65.1081 24.9232 65.1312 24.9993 65.1312 25.0771C65.1311 25.1814 65.0896 25.2814 65.0158 25.3552C64.942 25.4289 64.842 25.4704 64.7377 25.4705ZM52.9344 36.4207C52.7788 36.4207 52.6267 36.4668 52.4973 36.5533C52.3679 36.6397 52.267 36.7626 52.2075 36.9064C52.1479 37.0502 52.1323 37.2084 52.1627 37.3611C52.193 37.5137 52.268 37.6539 52.378 37.764C52.4881 37.874 52.6283 37.949 52.7809 37.9793C52.9336 38.0097 53.0918 37.9941 53.2356 37.9345C53.3794 37.875 53.5022 37.7741 53.5887 37.6447C53.6752 37.5153 53.7213 37.3632 53.7213 37.2076C53.7211 36.9989 53.6381 36.7989 53.4906 36.6514C53.3431 36.5039 53.1431 36.4209 52.9344 36.4207ZM52.9344 37.601C52.8566 37.601 52.7806 37.5779 52.7159 37.5347C52.6512 37.4915 52.6007 37.43 52.5709 37.3581C52.5412 37.2862 52.5334 37.2071 52.5486 37.1308C52.5637 37.0545 52.6012 36.9844 52.6562 36.9293C52.7113 36.8743 52.7814 36.8369 52.8577 36.8217C52.934 36.8065 53.0131 36.8143 53.085 36.8441C53.1569 36.8738 53.2183 36.9243 53.2616 36.989C53.3048 37.0537 53.3279 37.1297 53.3279 37.2076C53.3278 37.3119 53.2863 37.4119 53.2125 37.4856C53.1388 37.5594 53.0388 37.6009 52.9344 37.601ZM58.7049 5.28033C58.5493 5.28033 58.3972 5.32648 58.2678 5.41295C58.1384 5.49941 58.0375 5.62231 57.9779 5.76609C57.9184 5.90988 57.9028 6.06809 57.9332 6.22073C57.9635 6.37337 58.0385 6.51358 58.1485 6.62363C58.2586 6.73368 58.3988 6.80862 58.5514 6.83899C58.7041 6.86935 58.8623 6.85376 59.0061 6.79421C59.1498 6.73465 59.2727 6.63379 59.3592 6.50439C59.4457 6.37499 59.4918 6.22285 59.4918 6.06722C59.4916 5.8586 59.4086 5.65859 59.2611 5.51107C59.1136 5.36355 58.9136 5.28057 58.7049 5.28033ZM58.7049 6.46066C58.6271 6.46066 58.551 6.43759 58.4863 6.39436C58.4216 6.35112 58.3712 6.28968 58.3414 6.21778C58.3117 6.14589 58.3039 6.06678 58.319 5.99046C58.3342 5.91414 58.3717 5.84404 58.4267 5.78901C58.4818 5.73399 58.5519 5.69652 58.6282 5.68134C58.7045 5.66616 58.7836 5.67395 58.8555 5.70373C58.9274 5.7335 58.9888 5.78393 59.0321 5.84863C59.0753 5.91334 59.0984 5.9894 59.0984 6.06722C59.0983 6.17154 59.0568 6.27155 58.983 6.34531C58.9093 6.41907 58.8092 6.46056 58.7049 6.46066ZM6.90165 26.6509C6.90165 26.4952 6.8555 26.3431 6.76904 26.2137C6.68257 26.0843 6.55968 25.9834 6.41589 25.9239C6.27211 25.8643 6.11389 25.8487 5.96125 25.8791C5.80861 25.9094 5.6684 25.9844 5.55835 26.0944C5.44831 26.2045 5.37336 26.3447 5.343 26.4973C5.31264 26.65 5.32822 26.8082 5.38778 26.952C5.44734 27.0958 5.54819 27.2187 5.6776 27.3051C5.807 27.3916 5.95914 27.4377 6.11477 27.4377C6.32339 27.4375 6.5234 27.3545 6.67091 27.207C6.81843 27.0595 6.90141 26.8595 6.90165 26.6509ZM5.72132 26.6509C5.72132 26.573 5.7444 26.497 5.78763 26.4323C5.83086 26.3676 5.89231 26.3171 5.9642 26.2874C6.03609 26.2576 6.1152 26.2498 6.19152 26.265C6.26784 26.2801 6.33795 26.3176 6.39297 26.3726C6.448 26.4277 6.48547 26.4978 6.50065 26.5741C6.51583 26.6504 6.50804 26.7295 6.47826 26.8014C6.44848 26.8733 6.39805 26.9348 6.33335 26.978C6.26865 27.0212 6.19258 27.0443 6.11477 27.0443C6.01045 27.0442 5.91044 27.0027 5.83668 26.9289C5.76291 26.8552 5.72143 26.7552 5.72132 26.6509Z" fill="#00FF99"/>
<path d="M4.1912 10.359L4.77585 9.58938L4.40641 9.38007L4.03107 10.2417H4.01848L3.63723 9.38597L3.2611 9.60157L3.84025 10.3527V10.3649L2.93494 10.248V10.6666L3.84615 10.5498V10.562L3.2611 11.313L3.61205 11.5346L4.01258 10.6666H4.02477L4.39422 11.5283L4.78215 11.3068L4.1912 10.5679V10.5557L5.12051 10.6666V10.248L4.1912 10.3711V10.359Z" fill="#00FF99"/>
<path d="M19.3871 17.1116L19.0503 17.544L19.2526 17.6719L19.4831 17.1718H19.4902L19.7027 17.6683L19.9261 17.5404L19.5858 17.1151V17.1081L20.1209 17.1718V16.9306L19.5858 17.0018V16.9947L19.9226 16.5517L19.7101 16.4309L19.4938 16.9271H19.4867L19.2671 16.4345L19.0503 16.5584L19.384 16.9912V16.9983L18.8627 16.9306V17.1718L19.3871 17.1045V17.1116Z" fill="#00FF99"/>
<path d="M46.3305 11.74V11.3292L45.4193 11.45V11.4378L45.9929 10.6832L45.6306 10.4782L45.2623 11.3233H45.2501L44.8759 10.4837L44.5073 10.6954L45.075 11.4319V11.4441L44.187 11.3292V11.74L45.0809 11.6251V11.6373L44.5073 12.3738L44.8511 12.5914L45.2442 11.74H45.256L45.6184 12.5851L45.9988 12.3679L45.4193 11.6432V11.631L46.3305 11.74Z" fill="#00FF99"/>
<path d="M30.0364 6.89513L30.5314 6.24437L30.219 6.06732L29.9015 6.79637H29.8909L29.5679 6.07244L29.25 6.2546L29.7398 6.8904V6.90063L28.9738 6.80149V7.15558L29.7449 7.05683V7.06745L29.25 7.70247L29.5466 7.89014L29.8858 7.15558H29.896L30.2084 7.88503L30.5365 7.69736L30.0364 7.07218V7.06195L30.8229 7.15558V6.80149L30.0364 6.90575V6.89513Z" fill="#00FF99"/>
</g>
<defs>
<clipPath id="clip0_2_1406">
<rect width="66.0984" height="66.0984" fill="white" transform="translate(1 4.72131)"/>
</clipPath>
</defs>
</svg>

<svg width="72" height="72" fill="none" xmlns="http://www.w3.org/2000/svg"><circle opacity=".15" cx="51" cy="20" r="20" fill="#0F9"/><g clip-path="url(#a)" fill="#0F9"><path d="M1.787 64.752a.787.787 0 1 0 0-1.573.787.787 0 0 0 0 1.573ZM5.328 63.179h-1.18a.787.787 0 1 0 0 1.573h1.18a.787.787 0 1 0 0-1.573Zm58.623 0h-1.18a.787.787 0 0 0 0 1.573h1.18a.787.787 0 1 0 0-1.573ZM66.311 64.752a.787.787 0 1 0 0-1.573.787.787 0 0 0 0 1.573ZM47.487 66.326h-3.269a.79.79 0 0 0 0 1.574h3.269a.79.79 0 0 0 0-1.574Zm-23.607 0h-3.268a.79.79 0 0 0 0 1.574h3.268a.79.79 0 0 0 0-1.574Zm18.038 0H26.18a.787.787 0 0 0 0 1.574h6.272v.787h-3.124a.787.787 0 1 0 0 1.574h9.836a.787.787 0 1 0 0-1.574h-3.517V67.9h6.271a.787.787 0 1 0 0-1.574ZM60.3 63.179H36.378l2.29-4.328 3.148-5.512a.751.751 0 0 0 .09-.468v-.547a20.194 20.194 0 0 1 4.75-12.807A15.357 15.357 0 0 0 41.63 15.99a15.355 15.355 0 0 0-21.768 10.245 2.359 2.359 0 1 0 1.558.256 13.784 13.784 0 0 1 24.313-5.19 13.786 13.786 0 0 1-.29 17.21 21.796 21.796 0 0 0-5.107 13.652H29.328a22.935 22.935 0 0 0-4.887-13.86.788.788 0 0 0-1.243.967 21.332 21.332 0 0 1 4.556 13.047v.432a.777.777 0 0 0 .185.732l3.053 5.347 2.302 4.352H7.799a.793.793 0 1 0 0 1.573h52.5a.794.794 0 1 0 0-1.573ZM20.279 29.343a.787.787 0 1 1 0-1.574.787.787 0 0 1 0 1.574Zm12.299 29.114-.205-.385-2.475-4.336h9.876l-2.487 4.356-.193.365h-4.516Zm2.258 4.273-1.428-2.699h2.856l-1.428 2.7Z"/><path d="M37.244 31.408c-.661-1.456-1.078-2.44-1.24-3.722a41.329 41.329 0 0 1-.066-1.38.785.785 0 0 0-.378-.785.796.796 0 0 0-.594-.09c-2.306.335-4.328 3.746-4.564 4.163-1.971 3.71.85 7.598 1.692 8.625l.732 13.943h1.577L33.7 38.785h2.274l-.704 13.377h1.578l.743-14.12c0-.012-.004-.02-.004-.028 1.857-2.475-.102-6.173-.342-6.606Zm-1.027 5.8-2.95-.044c-.72-.9-2.956-4.048-1.488-6.81.55-.956 1.61-2.369 2.6-3.022.016.165.036.342.06.535.196 1.527.676 2.664 1.385 4.222.011.023.023.047.035.067.02.035 1.837 3.332.358 5.052ZM53.131 22.623a1.18 1.18 0 1 0 0-2.36 1.18 1.18 0 0 0 0 2.36Zm0-1.77a.59.59 0 1 1 0 1.18.59.59 0 0 1 0-1.18Zm11.607 3.437a.787.787 0 1 0 0 1.574.787.787 0 0 0 0-1.574Zm0 1.18a.394.394 0 1 1 0-.787.394.394 0 0 1 0 .788ZM52.934 36.42a.786.786 0 1 0 0 1.574.786.786 0 0 0 0-1.573Zm0 1.181a.393.393 0 1 1 0-.787.393.393 0 0 1 0 .787Zm5.77-32.32a.787.787 0 1 0 0 1.573.787.787 0 0 0 0-1.574Zm0 1.18a.394.394 0 1 1 0-.787.394.394 0 0 1 0 .787ZM6.903 26.65a.787.787 0 1 0-1.574 0 .787.787 0 0 0 1.574 0Zm-1.18 0a.393.393 0 1 1 .786 0 .393.393 0 0 1-.787 0ZM4.191 10.359l.585-.77-.37-.209-.375.862h-.013l-.38-.856-.377.216.58.75v.013l-.906-.117v.419l.911-.117v.012l-.585.751.351.222.4-.868h.013l.37.861.387-.221-.59-.74v-.011l.929.11v-.418l-.93.123v-.012ZM19.387 17.112l-.337.432.203.128.23-.5h.007l.213.496.223-.128-.34-.425v-.007l.535.064v-.241l-.535.07v-.006l.337-.443-.213-.121-.216.496h-.007l-.22-.492-.217.123.334.433v.007l-.521-.067v.24l.524-.066v.007ZM46.33 11.74v-.41l-.91.12v-.012l.573-.755-.362-.205-.369.845h-.012l-.374-.84-.369.212.568.737v.012l-.888-.115v.411l.894-.115v.012l-.574.737.344.217.393-.851h.012l.362.845.38-.217-.579-.725v-.012l.912.109ZM30.036 6.895l.495-.65-.312-.178-.318.73h-.01l-.323-.725-.318.183.49.635v.01l-.766-.099v.355l.77-.1v.011l-.494.635.297.188.339-.734h.01l.312.729.329-.188-.5-.625v-.01l.786.094V6.8l-.787.105v-.01Z"/></g><defs><clipPath id="a"><path fill="#fff" transform="translate(1 4.721)" d="M0 0h66.098v66.098H0z"/></clipPath></defs></svg>
